cards-variant.svg

<svg fill="currentColor" viewBox="0 0 24 24"><path d="M5 2h14a1 1 0 0 1 1 1v10a1 1 0 0 1-1 1H5a1 1 0 0 1-1-1V3a1 1 0 0 1 1-1m1 2v8h12V4zm14 13a1 1 0 0 1-1 1H5a1 1 0 0 1-1-1v-1h16zm0 4a1 1 0 0 1-1 1H5a1 1 0 0 1-1-1v-1h16z"/></svg>

<svg  viewBox="0 0 24 24" fill="currentColor"><path  d="M5,2H19A1,1 0 0,1 20,3V13A1,1 0 0,1 19,14H5A1,1 0 0,1 4,13V3A1,1 0 0,1 5,2M6,4V12H18V4H6M20,17A1,1 0 0,1 19,18H5A1,1 0 0,1 4,17V16H20V17M20,21A1,1 0 0,1 19,22H5A1,1 0 0,1 4,21V20H20V21Z"/></svg>
